web/pycharm-ce/pycharm-ce-text.svg

<svg height="133.28" viewBox="0 0 587.70001 133.28" width="587.70001" xmlns="http://www.w3.org/2000/svg"><path d="m0 3.66139h85.03937v85.03941h-85.03937z"/><g fill="#fff"><path d="m7.96412 14.28684h8.69573c5.07621 0 8.147 3.01 8.147 7.35672v.0608c0 4.925-3.83074 7.47909-8.60376 7.47909h-3.55709v6.384h-4.68188zm8.391 10.73149c2.3413 0 3.70913-1.39822 3.70913-3.22279v-.0608c0-2.09736-1.459-3.222-3.80032-3.222h-3.61793v6.50561h3.70915z"/><path d="m26.63281 24.98787v-.06078a10.81607 10.81607 0 0 1 11.097-11.0051 10.97965 10.97965 0 0 1 8.39019 3.28283l-2.97963 3.43559a7.85259 7.85259 0 0 0 -5.44174-2.40134c-3.58677 0-6.17124 2.97963-6.17124 6.62722v.0608c0 3.64835 2.52291 6.688 6.17124 6.688 2.43252 0 3.92191-.9727 5.59373-2.49251l2.97963 3.01a10.87995 10.87995 0 0 1 -8.72533 3.80042 10.742 10.742 0 0 1 -10.91385-10.94513"/><path d="m7.97299 72.75734h31.88947v5.31449h-31.88947z"/></g><path d="m106.38592 3.64277h34.72779c20.27822 0 32.54227 12.02121 32.54227 29.38511v.2429c0 19.67112-15.29966 29.87084-34.36353 29.87084h-14.207v25.49955h-18.69953zm33.51356 42.86345c9.3498 0 14.814-5.5856 14.814-12.87116v-.2429c0-8.37839-5.8285-12.87116-15.17829-12.87116h-14.44971v25.98522z"/><path d="m222.95561 23.55664h19.18539l-25.01388 66.663c-4.97842 13.2355-10.32125 18.21391-21.37106 18.21391a30.55633 30.55633 0 0 1 -16.39251-4.49275l6.19278-13.35688a16.77271 16.77271 0 0 0 7.89266 2.55c3.15715 0 4.857-.97132 6.43553-4.24985l-25.4994-65.32742h19.54951l14.814 44.32064z"/><path d="m239.46905 46.38484v-.2429c0-24.1638 18.21406-43.95628 44.32064-43.95628 16.02822 0 25.62091 5.34276 33.51371 13.11406l-11.89974 13.72114c-6.55707-5.94987-13.2355-9.59268-21.73535-9.59268-14.32835 0-24.6496 11.89975-24.6496 26.47092v.24284c0 14.57125 10.07835 26.71375 24.6496 26.71375 9.71407 0 15.66395-3.88557 22.34238-9.957l11.89977 12.02131c-8.74261 9.34978-18.45668 15.17828-34.84933 15.17828-25.01373 0-43.59208-19.30674-43.59208-43.71344z"/><path d="m319.73142 0h18.45681v32.78506c4.25-5.46414 9.71407-10.44263 19.064-10.44263 13.96391 0 22.09948 9.2284 22.09948 24.1638v42.13494h-18.45671v-36.30645c0-8.74275-4.12862-13.23551-11.17135-13.23551s-11.53541 4.49279-11.53541 13.23551v36.30645h-18.45682z"/><path d="m381.77913 69.94144v-.24275c0-14.207 10.80691-20.76388 26.22811-20.76388a46.24994 46.24994 0 0 1 15.90685 2.67135v-1.09285c0-7.64982-4.73567-11.89975-13.96406-11.89975-7.04273 0-12.02128 1.33567-17.97116 3.52136l-4.61413-14.08552a57.42439 57.42439 0 0 1 25.25665-5.22132c10.07835 0 17.364 2.67142 21.97825 7.28563 4.857 4.857 7.04272 12.02121 7.04272 20.76388v37.76358h-17.84981v-7.04273c-4.49275 4.97842-10.68553 8.25695-19.671 8.25695-12.26407-.00001-22.34242-7.04272-22.34242-19.91395zm42.37771-4.24985v-3.27852a28.61743 28.61743 0 0 0 -11.77823-2.42845c-7.8928 0-12.74983 3.157-12.74983 8.9855v.24277c0 4.97855 4.12847 7.8928 10.07835 7.8928 8.62136 0 14.44971-4.73569 14.44971-11.4141z"/><path d="m445.64913 23.55664h18.45681v13.11406c3.7642-8.98551 9.8356-14.814 20.76388-14.32827v19.30674h-.97132c-12.264 0-19.79256 7.407-19.79256 22.94958v24.04242h-18.45681z"/><path d="m488.51279 23.55664h18.45681v9.22841c4.25-5.46414 9.8356-10.44263 19.18538-10.44263 8.49985 0 14.93538 3.76418 18.33543 10.32125 5.707-6.67851 12.5068-10.32125 21.37093-10.32125 13.72116 0 21.97825 8.25695 21.97825 23.921v42.37775h-18.45681v-36.30645c0-8.74275-3.88572-13.23551-10.80691-13.23551s-11.17133 4.49279-11.17133 13.23551v36.30645h-18.45668v-36.30645c0-8.74275-3.88572-13.23551-10.807-13.23551s-11.1712 4.49276-11.1712 13.23551v36.30645h-18.45687z"/><path d="m337.37612 120.72543v-.06055a10.75672 10.75672 0 0 1 10.79785-11.042 11.10957 11.10957 0 0 1 8.32715 3.38574l-1.64746 1.76855a9.27787 9.27787 0 0 0 -6.71-2.92773c-4.72754 0-8.2666 3.84375-8.2666 8.75391v.06152c0 4.94141 3.56934 8.81445 8.2666 8.81445 2.92773 0 4.84961-1.12793 6.89355-3.08008l1.58594 1.55566a11.11951 11.11951 0 0 1 -8.541 3.752 10.65045 10.65045 0 0 1 -10.70603-10.98147z"/><path d="m365.37514 120.72543v-.06055a10.89036 10.89036 0 1 1 21.7793-.06152v.06152a10.89037 10.89037 0 1 1 -21.7793.06055zm19.27734 0v-.06055a8.48874 8.48874 0 0 0 -8.418-8.81543c-4.88086 0-8.3584 3.9043-8.3584 8.75391v.06152a8.48928 8.48928 0 0 0 8.41895 8.81445c4.88089 0 8.35746-3.90433 8.35746-8.7539z"/><path d="m398.34584 109.9891h2.44043l7.77734 11.65137 7.77832-11.65137h2.44043v21.35156h-2.41016v-17.29492l-7.77734 11.43848h-.12206l-7.77832-11.4082v17.26465h-2.34863v-21.35157z"/><path d="m430.91909 109.9891h2.44043l7.77832 11.65137 7.77832-11.65137h2.43945v21.35156h-2.40918v-17.29492l-7.77832 11.43848h-.12211l-7.7773-11.40822v17.26465h-2.34961z"/><path d="m463.15737 122.40316v-12.41406h2.41016v12.26172c0 4.60547 2.4707 7.19824 6.52734 7.19824 3.93457 0 6.43652-2.37891 6.43652-7.0459v-12.41406h2.40918v12.23145c0 6.22168-3.56836 9.45508-8.90625 9.45508-5.27732-.00001-8.87695-3.2334-8.87695-9.27247z"/><path d="m492.74233 109.9891h2.25684l13.45215 17.11133v-17.11133h2.34863v21.35156h-1.92187l-13.78708-17.50879v17.50879h-2.34863v-21.35156z"/><path d="m523.15053 109.9891h2.41016v21.35156h-2.41016z"/><path d="m543.55581 112.21566h-7.16895v-2.22656h16.77637v2.22656h-7.168v19.125h-2.43945v-19.125z"/><path d="m570.45717 122.89144-8.877-12.90234h2.92871l7.19824 10.67578 7.25977-10.67578h2.80566l-8.876 12.87207v8.47949h-2.43945v-8.44922z"/></svg>

<svg id="Layer_1" data-name="Layer 1" xmlns="http://www.w3.org/2000/svg" width="587.70001" height="133.28" viewBox="0 0 587.70001 133.28">
  <title>pycharm-ce-text</title>
  <g>
    <g>
      <rect y="3.66139" width="85.03937" height="85.03941"/>
      <path d="M7.96412,14.28684h8.69573c5.07621,0,8.147,3.01,8.147,7.35672v0.0608c0,4.925-3.83074,7.47909-8.60376,7.47909H12.646v6.384H7.96412V14.28684Zm8.391,10.73149c2.3413,0,3.70913-1.39822,3.70913-3.22279v-0.0608c0-2.09736-1.459-3.222-3.80032-3.222H12.646v6.50561h3.70915Z" fill="#fff"/>
      <path d="M26.63281,24.98787V24.92709a10.81607,10.81607,0,0,1,11.097-11.0051A10.97965,10.97965,0,0,1,46.12,17.20482l-2.97963,3.43559a7.85259,7.85259,0,0,0-5.44174-2.40134c-3.58677,0-6.17124,2.97963-6.17124,6.62722v0.0608c0,3.64835,2.52291,6.688,6.17124,6.688,2.43252,0,3.92191-.9727,5.59373-2.49251l2.97963,3.01A10.87995,10.87995,0,0,1,37.54666,35.933,10.742,10.742,0,0,1,26.63281,24.98787" fill="#fff"/>
      <rect x="7.97299" y="72.75734" width="31.88947" height="5.31449" fill="#fff"/>
    </g>
    <g>
      <path d="M106.38592,3.64277h34.72779c20.27822,0,32.54227,12.02121,32.54227,29.38511v0.2429c0,19.67112-15.29966,29.87084-34.36353,29.87084h-14.207V88.64117H106.38592V3.64277Zm33.51356,42.86345c9.3498,0,14.814-5.5856,14.814-12.87116v-0.2429c0-8.37839-5.8285-12.87116-15.17829-12.87116H125.08548V46.50622h14.814Z"/>
      <path d="M222.95561,23.55664H242.141l-25.01388,66.663c-4.97842,13.2355-10.32125,18.21391-21.37106,18.21391a30.55633,30.55633,0,0,1-16.39251-4.49275l6.19278-13.35688a16.77271,16.77271,0,0,0,7.89266,2.55c3.15715,0,4.857-.97132,6.43553-4.24985l-25.4994-65.32742h19.54951l14.814,44.32064Z"/>
      <path d="M239.46905,46.38484v-0.2429c0-24.1638,18.21406-43.95628,44.32064-43.95628,16.02822,0,25.62091,5.34276,33.51371,13.11406L305.40366,29.02086c-6.55707-5.94987-13.2355-9.59268-21.73535-9.59268-14.32835,0-24.6496,11.89975-24.6496,26.47092v0.24284c0,14.57125,10.07835,26.71375,24.6496,26.71375,9.71407,0,15.66395-3.88557,22.34238-9.957L317.91046,74.92c-8.74261,9.34978-18.45668,15.17828-34.84933,15.17828C258.0474,90.09828,239.46905,70.79154,239.46905,46.38484Z"/>
      <path d="M319.73142,0h18.45681V32.78506c4.25-5.46414,9.71407-10.44263,19.064-10.44263,13.96391,0,22.09948,9.2284,22.09948,24.1638V88.64117H360.895V52.33472c0-8.74275-4.12862-13.23551-11.17135-13.23551S338.18824,43.592,338.18824,52.33472V88.64117H319.73142V0Z"/>
      <path d="M381.77913,69.94144V69.69869c0-14.207,10.80691-20.76388,26.22811-20.76388a46.24994,46.24994,0,0,1,15.90685,2.67135V50.51331c0-7.64982-4.73567-11.89975-13.96406-11.89975-7.04273,0-12.02128,1.33567-17.97116,3.52136l-4.61413-14.08552a57.42439,57.42439,0,0,1,25.25665-5.22132c10.07835,0,17.364,2.67142,21.97825,7.28563,4.857,4.857,7.04272,12.02121,7.04272,20.76388V88.64117H423.79255V81.59844c-4.49275,4.97842-10.68553,8.25695-19.671,8.25695C391.85748,89.85538,381.77913,82.81267,381.77913,69.94144Zm42.37771-4.24985V62.41307a28.61743,28.61743,0,0,0-11.77823-2.42845c-7.8928,0-12.74983,3.157-12.74983,8.9855v0.24277c0,4.97855,4.12847,7.8928,10.07835,7.8928C418.32849,77.10569,424.15684,72.37,424.15684,65.69159Z"/>
      <path d="M445.64913,23.55664h18.45681V36.6707c3.7642-8.98551,9.8356-14.814,20.76388-14.32827V41.64917h-0.97132c-12.264,0-19.79256,7.407-19.79256,22.94958V88.64117H445.64913V23.55664Z"/>
      <path d="M488.51279,23.55664h18.45681v9.22841c4.25-5.46414,9.8356-10.44263,19.18538-10.44263,8.49985,0,14.93538,3.76418,18.33543,10.32125,5.707-6.67851,12.5068-10.32125,21.37093-10.32125,13.72116,0,21.97825,8.25695,21.97825,23.921V88.64117H569.38278V52.33472c0-8.74275-3.88572-13.23551-10.80691-13.23551S547.40454,43.592,547.40454,52.33472V88.64117H528.94786V52.33472c0-8.74275-3.88572-13.23551-10.807-13.23551s-11.1712,4.49276-11.1712,13.23551V88.64117H488.51279V23.55664Z"/>
    </g>
    <g>
      <path d="M337.37612,120.72543v-0.06055a10.75672,10.75672,0,0,1,10.79785-11.042,11.10957,11.10957,0,0,1,8.32715,3.38574l-1.64746,1.76855a9.27787,9.27787,0,0,0-6.71-2.92773c-4.72754,0-8.2666,3.84375-8.2666,8.75391v0.06152c0,4.94141,3.56934,8.81445,8.2666,8.81445,2.92773,0,4.84961-1.12793,6.89355-3.08008l1.58594,1.55566a11.11951,11.11951,0,0,1-8.541,3.752A10.65045,10.65045,0,0,1,337.37612,120.72543Z"/>
      <path d="M365.37514,120.72543v-0.06055a10.89036,10.89036,0,1,1,21.7793-.06152v0.06152A10.89037,10.89037,0,1,1,365.37514,120.72543Zm19.27734,0v-0.06055a8.48874,8.48874,0,0,0-8.418-8.81543c-4.88086,0-8.3584,3.9043-8.3584,8.75391v0.06152a8.48928,8.48928,0,0,0,8.41895,8.81445C381.17592,129.47933,384.65249,125.575,384.65249,120.72543Z"/>
      <path d="M398.34584,109.9891h2.44043l7.77734,11.65137,7.77832-11.65137h2.44043v21.35156h-2.41016V114.04574l-7.77734,11.43848H408.4728l-7.77832-11.4082v17.26465h-2.34863V109.9891Z"/>
      <path d="M430.91909,109.9891h2.44043l7.77832,11.65137,7.77832-11.65137h2.43945v21.35156h-2.40918V114.04574l-7.77832,11.43848H441.046L433.2687,114.076v17.26465h-2.34961V109.9891Z"/>
      <path d="M463.15737,122.40316V109.9891h2.41016v12.26172c0,4.60547,2.4707,7.19824,6.52734,7.19824,3.93457,0,6.43652-2.37891,6.43652-7.0459V109.9891h2.40918v12.23145c0,6.22168-3.56836,9.45508-8.90625,9.45508C466.757,131.67562,463.15737,128.44223,463.15737,122.40316Z"/>
      <path d="M492.74233,109.9891h2.25684l13.45215,17.11133V109.9891h2.34863v21.35156h-1.92187L495.091,113.83187v17.50879h-2.34863V109.9891Z"/>
      <path d="M523.15053,109.9891h2.41016v21.35156h-2.41016V109.9891Z"/>
      <path d="M543.55581,112.21566h-7.16895V109.9891h16.77637v2.22656h-7.168v19.125h-2.43945v-19.125Z"/>
      <path d="M570.45717,122.89144l-8.877-12.90234h2.92871l7.19824,10.67578,7.25977-10.67578h2.80566l-8.876,12.87207v8.47949h-2.43945v-8.44922Z"/>
    </g>
  </g>
</svg>
